X:64
T: D'Meedche vu Goetzen, S. 32
N: L0024
O: Luxemburg
S: Die Luxemburger Volkslieder lterer Zeit, Luxemburg 1904 posth.]
R: ??, Liebeslied]
M: 6/8
L: 1/8
K: A
E | A2AAGA | B3G2E | A2z3
E | AAAAGA | B3G2E | A2z3
E | c2ccBc | d3c2
c | BBBB_B=B | e3c2
c | A4zc | A4z

@@@ Tune index: 8118
